X:1
T:Trust (Clark)
T:Trust (Clark)
T:Arranged by William James Kirkpatrick
T:Susanna Rebecca Graham Clark, 1887
T:Public Domain Courtesy of the Cyber Hymnal™
T:Public Domain Courtesy of the Cyber Hymnal™
C:Arranged by William James Kirkpatrick
Z:Public Domain
Z:Courtesy of the Cyber Hymnal™
%%score ( 1 2 ) ( 3 4 )
L:1/8
Q:1/4=100
M:4/4
K:G
V:1 treble 
V:2 treble 
V:3 bass 
V:4 bass 
V:1
 D2 | [DG]2 [DG][DG] [DF]2 [DE][DF] | [DG]6 ([DF][EG]) | [FA]2 [FA][FA] [EA]2 [GB][G^c] | %4
w: 1.~He|tells me to trust and not|fear, He *|bids me each pro- mise be-|
w: 2.~My|need He is pledged to sup-|ply, I *|trust for each breath that I|
w: 3.~He|of- fers me par- don and|peace, He *|of- fers me cleans- ing from|
w: 4.~Praise|God, it is done— I am|His! The *|blood co- vers bo- dy and|
 [Fd]6 (Bc) | [Gd]2 [Gd][Gd] G2 [FA][=FB] | [Ec]6 [CE]2 | [B,D]2 [B,G][DB] [CA]2 [CE][CF] | %8
w: lieve; His *|pres- ence and glo- ry seem|near, I|o- pen my heart to re-|
w: breathe; And *|since I take life at His|hands, Why|not all He wish- es to|
w: sin; The *|foun- tain once o- pened I|see, Dear|Je- sus, I dare to plunge|
w: soul; I~am *|par- doned and cleansed, I am|healed; All|glo- ry I’m ev- ery whit|
 [B,G]6 ||"^Refrain" [DF][DG] | [DA]2 [DA][DA] [A,D]2 [DG][DA] | [DB]2 [DB][DB] [B,G]2 [DA][DB] | %12
w: ceive;|I am|ran- somed, I know, For His|Word tells me so, So I|
w: give?|Lord, I|yield ev- er- more, For Thy|pro- mise is sure, While I|
w: in.|Now I|know I am free, For Thy|blood cleans- eth me, While I|
w: whole!|Praise His|name, I be- lieve, And this|mo- ment re- ceive, While I|
 [Fc]2 z2 [GB]2 z2 | [DA]6 [GB][Gc] | [Gd]2 [Gd][Gd] G2 [FA][=FB] | [Ec]2 [Ec][Ec] E2 [DF][CE] | %16
w: trust, trust,|trust! I am|ran- somed, I know, For His|Word tells me so, So I|
w: trust, trust,|trust! Lord, I|yield ev- er- more, For Thy|pro- mise is sure, While I|
w: trust, trust,|trust! Now I|know I am free, For Thy|blood cleans- eth me, While I|
w: trust, trust,|trust! Praise His|name, I be- lieve, And this|mo- ment re- ceive, While I|
 [B,D]2 z2 [DA]2 z2 | [DG]6 |] %18
w: trust, trust,|trust!|
w: trust, trust,|trust!|
w: trust, trust,|trust!|
w: trust, trust,|trust!|
V:2
 D2 | x8 | x8 | x8 | x6 G2 | x4 (DG) x2 | x8 | x8 | x6 || x2 | x8 | x8 | x8 | x8 | x4 (DG) x2 | %15
 x4 (CE) x2 | x8 | x6 |] %18
V:3
 [G,B,]2 | [G,B,]2 [G,B,][G,B,] [D,A,]2 [D,G,][D,A,] | [G,B,]6 [D,A,]2 | %3
 [D,A,]2 [D,D][D,D] [A,,^C]2 [A,,A,][A,,A,] | [D,A,]6 (G,A,) | %5
 [G,B,]2 [G,B,][G,B,] [G,B,]2 [G,C]G, | [C,G,]6 [C,G,]2 | %7
 [D,G,]2 [D,G,][D,G,] [D,F,]2 [D,G,][D,A,] | [G,,G,]6 || [D,A,][D,B,] | %10
 [D,C]2 [D,C][D,C] F,2 [B,,G,][A,,F,] | [G,,G,]2 [G,,G,][G,,G,] [G,,D,]2 [D,F,][D,G,] | %12
 [D,A,]2 z2 [D,G,]2 z2 | [D,F,]6 G,[G,A,] | [G,B,]2 [G,B,][G,B,] [G,B,]2 [G,C][G,D] | %15
 [C,C]2 [C,G,][C,G,] [C,G,]2 [C,G,][C,G,] | [D,G,]2 z2 [D,C]2 z2 | [G,,G,B,]6 |] %18
V:4
 x2 | x8 | x8 | x8 | x6 G,2 | x7 G, | x8 | x8 | x6 || x2 | x4 (D,C,) x2 | x8 | x8 | x6 G, x | x8 | %15
 x8 | x8 | x6 |] %18

